icons/desktop/40/briefcase-40.svg

<svg width="40" height="40" viewBox="0 0 40 40" fill="none" xmlns="http://www.w3.org/2000/svg">
<g clip-path="url(#clip0_8069_32802)">
<path fill-rule="evenodd" clip-rule="evenodd" d="M15.2725 1.44216C18.3763 0.853244 21.5991 0.853285 24.708 1.43826C27.195 1.90728 29 4.08029 29 6.60427V9.27517C31.0853 9.46095 33.2734 9.72068 35.5508 10.074C38.1084 10.4704 40.0007 12.6798 40.001 15.2674V31.7381C40.0008 34.2998 38.1493 36.5225 35.5879 36.9207C31.078 37.6221 25.8361 38.1248 20.0029 38.1248C15.5613 38.1248 10.3017 37.833 4.45312 36.9256C1.89659 36.5293 0.00237666 34.3207 0.000976562 31.7332V15.282C0.00088353 15.276 0 15.2695 0 15.2635C0.000275692 12.7014 1.85219 10.4789 4.41309 10.0799C6.46187 9.76129 8.66205 9.48448 11 9.27615V6.60427C11 4.08327 12.7975 1.91216 15.2725 1.44216ZM20.002 11.8748C17.1873 11.8748 14.5143 11.995 12 12.2V34.7986C14.8932 35.0345 17.574 35.1248 20.0029 35.1248C22.8159 35.1248 25.4872 35.0042 28 34.7996V12.199C25.1088 11.9634 22.4294 11.8748 20.002 11.8748ZM9 12.492C7.56359 12.6535 6.1873 12.8397 4.875 13.0437C3.80771 13.21 3.00542 14.144 3 15.2527C3.00003 15.2562 3.00093 15.2599 3.00098 15.2635V31.7322L3.01074 31.9383C3.10506 32.9565 3.88631 33.8025 4.91309 33.9617C6.31113 34.1786 7.67461 34.3585 9 34.5076V12.492ZM31 34.5076C32.4371 34.3461 33.8141 34.161 35.127 33.9568L35.3242 33.9168C36.2942 33.6727 37.0009 32.7822 37.001 31.7381V15.2674C37.0007 14.1575 36.1857 13.2074 35.0918 13.0379C33.692 12.8207 32.3269 12.6401 31 12.491V34.5076ZM24.1514 4.38748C21.4104 3.87048 18.5681 3.87241 15.8311 4.39041C14.7701 4.59141 14 5.52328 14 6.60427V9.05349C15.9215 8.93955 17.9243 8.87478 20.002 8.87478C21.8633 8.87478 23.8682 8.92714 26 9.05349V6.60427C26 5.52142 25.2231 4.58965 24.1514 4.38748Z" fill="black"/>
</g>
<defs>
<clipPath id="clip0_8069_32802">
<rect width="40" height="40" fill="white"/>
</clipPath>
</defs>
</svg>

<!-- This Source Code Form is subject to the terms of the Mozilla Public
   - License, v. 2.0. If a copy of the MPL was not distributed with this
   - file, You can obtain one at http://mozilla.org/MPL/2.0/. -->
<svg xmlns="http://www.w3.org/2000/svg" width="40" height="40" fill="context-fill" fill-opacity="context-fill-opacity" viewBox="0 0 40 40">
    <g clip-path="url(#clip0_8069_32802)">
        <path fill-rule="evenodd" d="M15.273 1.442a25.5 25.5 0 0 1 9.435-.004A5.266 5.266 0 0 1 29 6.604v2.671c2.085.186 4.273.446 6.55.799a5.26 5.26 0 0 1 4.451 5.193v16.471c0 2.562-1.852 4.785-4.413 5.183a101.4 101.4 0 0 1-31.135.005 5.264 5.264 0 0 1-4.452-5.193V15.282L0 15.264c0-2.563 1.852-4.785 4.413-5.184 2.049-.319 4.25-.596 6.587-.804V6.604a5.26 5.26 0 0 1 4.273-5.162m4.729 10.433c-2.815 0-5.488.12-8.002.325v22.599a98.5 98.5 0 0 0 16 0V12.2a98 98 0 0 0-7.998-.324M9 12.492a99 99 0 0 0-4.125.552c-1.067.166-1.87 1.1-1.875 2.209l.001.01v16.47l.01.205a2.266 2.266 0 0 0 1.902 2.024A98 98 0 0 0 9 34.508zm22 22.016a98 98 0 0 0 4.127-.551l.197-.04a2.24 2.24 0 0 0 1.677-2.179v-16.47c0-1.11-.815-2.06-1.91-2.23A98 98 0 0 0 31 12.49zm-6.849-30.12a22.5 22.5 0 0 0-8.32.002A2.254 2.254 0 0 0 14 6.604v2.45a101 101 0 0 1 12 0v-2.45a2.26 2.26 0 0 0-1.849-2.217" clip-rule="evenodd" />
    </g>
</svg>
